usr/share/icons/biglinux-icons-material-dark/16/actions/precondition.svg

<svg xmlns="http://www.w3.org/2000/svg" viewBox="0 0 16 16">
<defs id="defs3051">
<style id="current-color-scheme" type="text/css">
.ColorScheme-Text{color:#dedede}
</style>
</defs>
<path d="M8 4a6 4 0 0 0-6 4 6 4 0 0 0 6 4 6 4 0 0 0 6-4 6 4 0 0 0-6-4m0 1a5 3 0 0 1 5 3 5 3 0 0 1-5 3 5 3 0 0 1-5-3 5 3 0 0 1 5-3" class="ColorScheme-Text" style="fill:currentColor;fill-opacity:1;stroke:none"/>
</svg>

<svg xmlns="http://www.w3.org/2000/svg" viewBox="0 0 16 16">
  <defs id="defs3051">
    <style type="text/css" id="current-color-scheme">
      .ColorScheme-Text {
        color:#dedede;
      }
      </style>
  </defs>
 <path 
     style="fill:currentColor;fill-opacity:1;stroke:none" 
     d="M8 4A6 4 0 0 0 2 8 6 4 0 0 0 8 12 6 4 0 0 0 14 8 6 4 0 0 0 8 4M8 5A5 3 0 0 1 13 8 5 3 0 0 1 8 11 5 3 0 0 1 3 8 5 3 0 0 1 8 5"
     class="ColorScheme-Text"/>
</svg>
